X:236
T:O'Shaughnessy's
R:jig
S:Mike Rafferty
H:Jack O'Shaughnessy was in the Tulla band, a great player.
D:Mike and Mary Rafferty, the Dangerous Reel
Z: Lesl
M:6/8
K:Dmix
D2E|:F~F2 DFA|dAF AFD|E~E2 cEG|cGE cEG| 
F~F2 DFA|dAF AFD|G~G2 EFG|1 AFD D2E:|2 AFD D2e||  
|ffd d^cd|AFd def|eec cBc|GEG ceg| 
ffd d^cd|AFd def|g~g2 efg|afd d2e|| 
|f~f2 dAd|afd def|e2c cBc|geG ceg| 
agf gz e|fed cAF|G~G2 EFG|AFD D3||
